X:1
T:What Shall I Do to Be Saved?
T:William Batchelder Bradbury
T:What Shall I Do to Be Saved?
T:Public Domain
T:Public Domain
C:William Batchelder Bradbury
Z:Public Domain
%%score ( 1 2 ) ( 3 4 )
L:1/8
M:3/4
K:F
V:1 treble 
V:2 treble 
V:3 bass 
V:4 bass 
V:1
 [Ac]2 | [Ac]2 [GB]2 [FA]2 | [EG]2 [FA]2 [EG]2 | F4 [FA][GB] | [Ac]2 [Bd]2 [Ac]2 | %5
w: 1.~O!|what shall I|do to be|saved From the|rows that bur-|
w: 2.~O!|what shall I|do to be|saved When the|sures of youth|
w: 3.~O!|what shall I|do to be|saved Wh- en|ness my strength|
w: 4.~O!|Lord, look in|mer- cy on|me, Come, O|and speak peace|
 [Ac]2 [GB]2 [FA]2 | [EG]4 [EG][EG] | [EG]2 [EG]2 [FA]2 | [GB]4 [FA][EG] | [FA]2 [FA]2 [GB]2 | %10
w: den my soul?|Like the waves|in the storm|When the winds|are at war,|
w: are all fled?|And the friends|I have loved,|From the earth|are re- moved|
w: shall sub- due?|Or the world|in a day,|Like a cloud|roll a- way,|
w: to my soul:|Un- to whom|shall I flee,|Dear- est Lord,|but to Thee,|
 [Ac]4 [Bd][Bd] | [Ac]2 [GB]2 [FA]2 | [EG]2 [EA]2 [EG]2 | F6 | [EG]2 [EG]2 [FA]2 | [GB]6 | %16
w: Chill- ing floods|of dis- tress|o’er me roll.|What|I do? what|shall|
w: And I weep|o’er the graves|of the dead?|What|I do? what|shall|
w: And e- ter-|ni- ty o-|pens to view?|What|I do? what|shall|
w: Thou canst make|my poor, brok-|en heart whole.|That|I do! that|will|
 [FA]2 [FA]2 [GB]2 | [Ac]6 | [Fd]6 | [Ac]2 [GB]2 [FA]2 | [EG]2 [EA]3 [EG] | F4 |] %22
w: I do? O!|what|shall|I do to|be saved? *||
w: I do? O!|what|shall|I do to|be saved? *||
w: I do? O!|what|shall|I do to|be saved? *||
w: I do! To|Je-|sus|I’ll go and|be saved! *||
V:2
 x2 | x6 | x6 | F4 x2 | x6 | x6 | x6 | x6 | x6 | x6 | x6 | x6 | x6 | F6 | x6 | x6 | x6 | x6 | x6 | %19
w: |||sor-||||||||||shall||||||
w: |||plea-||||||||||shall||||||
w: |||sick-||||||||||shall||||||
w: |||come||||||||||will||||||
 x6 | x6 | F4 |] %22
w: |||
w: |||
w: |||
w: |||
V:3
 [F,C]2 | [F,C]2 [F,C]2 [F,C]2 | [C,C]2 [C,C]2 [C,C]2 | [F,A,]4 [F,C][F,C] | [F,C]2 F,2 F,2 | %5
 F,2 [E,G,]2 (A,B,) | [C,C]4 [C,C][C,C] | [C,C]2 [C,C]2 [C,C]2 | [C,C]4 [C,C][C,C] | %9
 [F,C]2 [F,C]2 [F,C]2 | [F,C]4 [B,,B,][B,,B,] | [C,F,]2 [C,G,]2 [C,A,]2 | [C,B,]2 [C,C]2 [C,B,]2 | %13
 [F,A,]6 | [C,C]2 [C,C]2 [C,C]2 | [C,C]6 | [F,C]2 [F,C]2 [F,C]2 | [F,C]6 | [B,,B,]6 | %19
 [F,C]2 [E,C]2 [F,C]2 | [C,B,]2 [C,C]3 [C,B,] | [F,A,]4 |] %22
V:4
 x2 | x6 | x6 | x6 | x2 F,2 F,2 | F,2 F,2 x2 | x6 | x6 | x6 | x6 | x6 | x6 | x6 | x6 | x6 | x6 | %16
 x6 | x6 | x6 | x6 | x6 | x4 |] %22

